icons/code-hex.svg

<svg xmlns="http://www.w3.org/2000/svg" viewBox="0 0 24 24" fill="currentColor">
  <path d="m18.6969 5.36309-4.319-2.51102c-1.4333-.83574-3.3225-.83586-4.75579 0l-4.3 2.5c-1.42369.83048-2.3721 2.37338-2.3721 4.14783v5c0 1.6909.96112 3.2088 2.33398 4.124l.01915.0128 4.31897 2.511c1.43349.8362 3.32229.8361 4.75579 0l4.319-2.511.0191-.0128c1.3729-.9152 2.334-2.4331 2.334-4.124v-5c0-1.69093-.9611-3.2088-2.334-4.12404l-.0191-.01277Zm-8.319-1.21535c.9665-.56378 2.2777-.56378 3.2442 0l.0009.00054 4.2793 2.48795c1.0164.68538 1.6477 1.76122 1.6477 2.86367v5c0 1.1025-.6313 2.1783-1.6477 2.8637l-4.2802 2.4885c-.9665.5637-2.2777.5637-3.2442 0l-4.28019-2.4885c-1.01641-.6854-1.6477-1.7612-1.6477-2.8637v-5c0-1.22539.6518-2.2826 1.62791-2.85216l4.29998-2.5Zm2.8918 5.32169c.2929-.2929.7678-.2929 1.0607 0l1.4 1.39997c.2705.2705.4446.6297.4446 1.0303 0 .4007-.1741.7599-.4446 1.0304l-1.4 1.4c-.2929.2929-.7678.2929-1.0607 0-.2929-.2929-.2929-.7678 0-1.0607l1.3697-1.3697-1.3697-1.3696c-.2929-.2929-.2929-.76778 0-1.06067Zm-2.6393.09997c.2929.29289.2929.7678 0 1.0607l-1.3697 1.3696 1.3697 1.3697c.2929.2929.2929.7678 0 1.0607-.2929.2928-.76781.2928-1.0607 0l-1.39999-1.4c-.27052-.2706-.44467-.6297-.44467-1.0304 0-.4007.17415-.7598.44467-1.0303l1.39999-1.4c.29289-.29289.7678-.29289 1.0607 0Z"/>
</svg>

<svg width="24" height="24" viewBox="0 0 24 24" fill="none" xmlns="http://www.w3.org/2000/svg">
<path fill-rule="evenodd" clip-rule="evenodd" d="M18.6969 5.36309L14.3779 2.85207C12.9446 2.01633 11.0554 2.01621 9.62211 2.85207L5.32211 5.35207C3.89842 6.18255 2.95001 7.72545 2.95001 9.4999V14.4999C2.95001 16.1908 3.91113 17.7087 5.28399 18.6239L5.30314 18.6367L9.62211 21.1477C11.0556 21.9839 12.9444 21.9838 14.3779 21.1477L18.6969 18.6367L18.716 18.6239C20.0889 17.7087 21.05 16.1908 21.05 14.4999V9.4999C21.05 7.80897 20.0889 6.2911 18.716 5.37586L18.6969 5.36309ZM10.3779 4.14774C11.3444 3.58396 12.6556 3.58396 13.6221 4.14774L13.623 4.14828L17.9023 6.63623C18.9187 7.32161 19.55 8.39745 19.55 9.4999V14.4999C19.55 15.6024 18.9187 16.6782 17.9023 17.3636L13.6221 19.8521C12.6556 20.4158 11.3444 20.4158 10.3779 19.8521L6.09771 17.3636C5.0813 16.6782 4.45001 15.6024 4.45001 14.4999V9.4999C4.45001 8.27451 5.10181 7.2173 6.07792 6.64774L10.3779 4.14774ZM13.2697 9.46943C13.5626 9.17653 14.0375 9.17653 14.3304 9.46943L15.7304 10.8694C16.0009 11.1399 16.175 11.4991 16.175 11.8997C16.175 12.3004 16.0009 12.6596 15.7304 12.9301L14.3304 14.3301C14.0375 14.623 13.5626 14.623 13.2697 14.3301C12.9768 14.0372 12.9768 13.5623 13.2697 13.2694L14.6394 11.8997L13.2697 10.5301C12.9768 10.2372 12.9768 9.76232 13.2697 9.46943ZM10.6304 9.5694C10.9233 9.86229 10.9233 10.3372 10.6304 10.6301L9.2607 11.9997L10.6304 13.3694C10.9233 13.6623 10.9233 14.1372 10.6304 14.4301C10.3375 14.7229 9.86259 14.7229 9.5697 14.4301L8.16971 13.0301C7.89919 12.7595 7.72504 12.4004 7.72504 11.9997C7.72504 11.599 7.89919 11.2399 8.16971 10.9694L9.5697 9.5694C9.86259 9.27651 10.3375 9.27651 10.6304 9.5694Z" fill="black"/>
</svg>
